public/icons/load.svg

<!DOCTYPE svg PUBLIC "-//W3C//DTD SVG 1.1//EN" "http://www.w3.org/Graphics/SVG/1.1/DTD/svg11.dtd">
<!-- Uploaded to: SVG Repo, www.svgrepo.com, Transformed by: SVG Repo Mixer Tools -->
<svg fill="#1c274d" width="800px" height="800px" viewBox="0 0 32 32" version="1.1" xmlns="http://www.w3.org/2000/svg">
<g id="SVGRepo_bgCarrier" stroke-width="0"/>
<g id="SVGRepo_tracerCarrier" stroke-linecap="round" stroke-linejoin="round"/>
<g id="SVGRepo_iconCarrier"> <title>load</title> <path d="M9.467 9.609h3.030c0.266 0 0.482-0.278 0.482-0.621v-4.374c0-0.343-0.216-0.621-0.482-0.621h-3.030c-0.266 0-0.482 0.278-0.482 0.621v4.374c0 0.343 0.216 0.621 0.482 0.621zM25.958 23.399v-7.987h-7.987v7.987h-3.993l7.987 7.987 7.987-7.987zM7.113 25.708c-0.276 0-0.499-0.223-0.499-0.499v-11.481c0-0.276 0.223-0.499 0.499-0.499h17.721c0.276 0 0.499 0.223 0.499 0.499v0.536h1.554v8.607h1.566v-14.884c0-0.276-4.216-4.493-4.493-4.493h-4.741c0.169 0.069 0.287 0.223 0.287 0.404v6.181c0 0.244-0.216 0.442-0.482 0.442h-10.594c-0.266 0-0.482-0.198-0.482-0.442v-6.181c0-0.18 0.118-0.335 0.287-0.404h-4.242c-0.277 0-0.499 0.223-0.499 0.499v23.961c0 0.277 0.223 0.499 0.499 0.499h14.412l-2.746-2.746h-8.546z"/> </g>
</svg>

<svg xmlns="http://www.w3.org/2000/svg" width="800" height="800" fill="#1c274d" viewBox="0 0 32 32"><path d="M9.47 9.6h3.03c.26 0 .48-.27.48-.61V4.6c0-.34-.22-.62-.48-.62H9.47c-.27 0-.49.28-.49.62V9c0 .34.22.62.49.62zm16.49 13.8V15.4h-7.99v7.99h-4l8 7.99 7.98-8zM7.1 25.7a.5.5 0 0 1-.5-.5V13.74c0-.28.23-.5.5-.5h17.72c.28 0 .5.22.5.5v.53h1.56v8.61h1.56V8c0-.28-4.21-4.5-4.49-4.5h-4.74c.17.07.29.23.29.4v6.19c0 .24-.22.44-.49.44H8.43c-.27 0-.48-.2-.48-.44V3.9c0-.18.12-.34.28-.4H4a.5.5 0 0 0-.5.5v23.95c0 .28.23.5.5.5H18.4l-2.74-2.74H7.1z"/></svg>
